X:1
T:Title
%%score 1 2 3
L:1/8
M:3/2
K:C
V:1 treble nm="Part_1"
V:2 treble-8 nm="Part_2"
V:3 treble-8 nm="Part_3"
V:1
 G4 G4 G2 F2 | G6 F2 _E4 | D4 z4 F4 | G2 A4 G2 F2 E2 | G4 z4 G4 | G4 A6 _B2 | G2 FG A2 G4 F2 | %7
 E3 D F8 | z4 F4 G4 | A4 A2 _B2 c2 B2 | A2 GA _B2 G4 F2 | G4 G4 A4 | G4 G4 G4 | F4 _E2 G4 F2 | %14
 D6 C2 C2 B,2 | D4 z2 D2 F2 G2 | A2 _B2 A2 G4 F2 | G4 z4 G4- | G4 F4 A2 _B2 | c6 _B2 A2 G2- | %20
[M:2/2] G2 G2 F2 E2 |[M:4/2] G16 |] %22
V:2
 d4 d4 d2 c2 | d6 c2 _B4 | A4 z4 c4 | d2 e4 d2 c2 B2 | d4 z4 d4 | d4 e6 f2 | d2 cd e2 d4 c2 | %7
 B3 A c8 | z4 c4 d4 | e4 e2 f2 g2 f2 | e2 de f2 d4 c2 | d4 d4 e4 | d4 d4 d4 | c4 _B2 d4 c2 | %14
 A6 G2 G2 F2 | A4 z2 A2 c2 d2 | e2 f2 e2 d4 c2 | d4 z4 d4- | d4 c4 e2 f2 | g6 f2 e2 d2- | %20
[M:2/2] d2 d2 c2 B2 |[M:4/2] d16 |] %22
V:3
[K:F] G4 B6 A2 | G8 G4 | D8 A4 | _B2 c4 B2 A4 | G8 B4 | G4 c6 d2 | B4 c2 B2 G2 A2 | G4 F8 | %8
 z4 A4 B4 | A4 c2 d2 e2 d2 | c4 B4 A4 | G4 B4 c4 | G6 B4 G2 | A4 G4 B2 A2 | F4 D4 E4 | D8 A2 B2 | %16
 c2 d4 B2 A4 | G8 B4 | G4 A4 c2 d2 | c2 e4 d2 c2 B2 |[M:2/2] G2 B2 A4 |[M:4/2] G16 |] %22

